!!!OTL: AUF AUF IHR BRUEDER UND SEID STARK
!!!ARE: Europa, Mitteleuropa, Deutschland, Wuerttemberg
!!!SCT: B0044
!!!YEM: Copyright 1995, estate of Helmut Schaffrath.
**kern
*ICvox
*Ivox
*M4/4
*k[f#c#]
*D:
{4a
=1
4.dd
8a
8a
8g
8f#
8e
=2
4d
4d
4.d}
{8f#
=3
8e
8a
8c#
8e
8e
8d
8c#
8B
=4
2A
4r}
{8a
8g
=5
4f#
4f#
4.f#
8a
=6
8a
8g
8g
8f#
4g}
{8g
8f#
=7
4e
4e
4.e
8g
=8
8g
8f#
8f#
8e
4.f#}
{8a
=9
4.dd
8a
8g
8f#
8e
8d
=10
2a}
{2cc#
=11
4.dd
8b
8a
8g
8f#
8e
=12
2d
4r}
==
!!!AGN: Kriegs -, Sieges -, Soldaten - Lied
!!!ONB: ESAC (Essen Associative Code) Database: BOEHME
!!!AMT: simple quadruple
!!!AIN: vox
!!!EED: Helmut Schaffrath
!!!EEV: 1.0
*-
